X: 29197
T: New Copperplate, The
R: reel
M: 4/4
K: Gmajor
|:G2dG BGdG|~G2dc BGGB|A2eA cAeA|~A2ed cAFA|
~G2dG BGdG|~G2dc BGGB|ABcd ef g/f/e|1 aged cAFA:|2 aged B/^c/d ef||
|:g2{b}gf gfef|gedc BGGB|Aa{b}a^g a=geg|aged B/^c/d ef|
g2{b}gf gfef|gedc BGGB|ABcd ef g/f/e|1 aged B/^c/d ef:|2 aged cAFA||

